X:13
T:I have no Money
M:C|
R:Reel
Z:Lark camp handout
K:D
FAdB A3G|FAdA FEE2|FAdB A3f|afea fddA|\
FAdB A3G|FAdA FEE2|FAdB ABdf|afea fddf||\
afef d3f|afea fBBA|afef d3B|ABAG FD Df|\
afef d3f|afea fBBA|a3f edBd|ABAG FDDE||
